X: 17961
T: Hudie Gallagher's March
R: jig
M: 6/8
K: Amixolydian
He2d|:cBA eAA|fed cBA|def gfg|
"1"BcB Bed|cBA ecA|fed cBA|
~c2e dBG|1 ABA Aed:|2 ABA A2a||
|:afa geg|fed cBA|def gfg|
BcB B2a|afa geg|fed cBA|
~c2e dBG|1 ABA A2a:|2 ABA Aed||
P: Variation
"1" BcB Bcd|e3 ef^g|aed cBA|

